X:18
T:John Barleycorn
M:4/4
S:Binghamton MM
A:Bampton
O:English
R:Reel
P:A(ABC)4
K:D
P:A
d2 d2 cB A2 | B2 B2 AG F2 | F2 FG F2 E2 |1 D6 Bc :|2 D8 |]
P:B
E3F ^G2 E2 | A2 B2 d4 | d2 d2 c2 B2 | A4 B2 c2 |
d2 d2 cB A2 | B2 B2 AG F2 | F2 FG F2 E2 | D8 |]
P:C
d4 d4 | c2 B2 A4 | B4 B4 | A2 G2 F4 |
D3 E F2 D2 | F2 G2 A4 | d2 d2 cB c2 | d8 |]
